X:1
T:Die Nonne
T:Robert Schumann
T:anon.
T:Die Nonne
T:Copyright © CPDL 2018 Please forward corrections &c to RichardMix@hotmail.com
T:Copyright © CPDL 2018 Please forward corrections &amp;c to RichardMix@hotmail.com
T:Copyright © CPDL 2018 Please forward corrections &amp;c to RichardMix@hotmail.com
T:Copyright © CPDL 2018 Please forward corrections &amp;c to RichardMix@hotmail.com
T:Copyright © CPDL 2018 Please forward corrections &amp;c to RichardMix@hotmail.com
C:Robert Schumann
Z:anon.
Z:Copyright © CPDL 2018
Z:Please forward corrections &c to RichardMix@hotmail.com
%%score [ 1 ( 2 3 ) ]
L:1/8
Q:1/4=60
M:4/4
K:Bb
V:1 treble nm="P1" snm="S."
V:2 bass nm="P2" snm="B."
V:3 bass 
V:1
!p!"^Ziemlich langsam." [Bd] | [Bd]3 [D^F] [DG]2 [EA]2 | [DG]2 [D^F]2 !>![Fc]2 [FB][FA] | %3
w: 1.~Sie|steht am Zel- len-|fen- ster, denkt un- ab-|
 G[EA] [D^F]6 | z!<(! [D=F][DF][DF] [EG]3!<)! [EG] |!f! [Ec]2 [EF]!p![CF] [B,B]2 [Gc]2 | %6
w: läs- sig sein,|der ihr das Wort ge-|bro- chen, und blickt in's|
 [EA]>[DB] [DB]4!pp! [DB]2 | [CA]2 ([B,G][A,F]) [DB]2 [Ec][Ec] | [CA]2 ([B,G][A,F]) [DB]2 z [Dd] | %9
w: Land hin- ein. Zwei|Schäf- lein _ wei- den im|grü- nen _ Klee, der|
 [Ec]2 z [Ec] [FB]2 z [FB] | [=EA]3 [^FA] G2 z!p! [Bd] | [Bd]3 [D^F] [DG]2 [_EA]2 | %12
w: Lenz thut wohl, der|Lenz thut weh. 2.~Ein|Duf- ten und ein|
 [DG]2 [D^F]2 !>![Fc]2 [FB][FA] | G[EA] [D^F]6 | z!<(! [D=F][DF][DF] [EG]3!<)! [EG] | %15
w: Flö- ten dringt aus dem|Gar- ten- raum,|und ü- ber Ei- sen-|
 [Ec]2 [EF]!p![CF] [B,B]2 [Gc]2 | [EA]>[DB] [DB]4!pp! [DB]2 | [CA]2 ([B,G][A,F]) [DB]2 [Ec][Ec] | %18
w: git- tern rauscht drein der|Lin- den- baum. Zwei|Vög- lein _ si- tzen in|
 [CA]2 ([B,G][A,F]) [DB]2 [Dd][Dd] | [Ec]2 [Ec][Ec] [FB]2 [FB][FB] | [=EA]3 [^FA] G2 z!p! [Bd] | %21
w: Wi- pfeln _ grün, mit ein-|an- der die ro- si- gen|Wol- ken zieh'n. 3.~Tief|
 [Bd]3 [D^F] [DG]2 [_EA]2 | [DG]2 [D^F]2 !>![Fc]2 [FB][FA] | G[EA] [D^F]6 | %24
w: aus der Wald- nacht|drü- ben lis- pelt und|lockt es gar;|
 z!<(! [D=F][DF][DF] [EG]3!<)! [EG] | [Ec]2 [EF]!p![CF] [B,B]2 [Gc]2 | [EA]>[DB] [DB]4!pp! [DB]2 | %27
w: voll Weh- muth lauscht die|Non- ne, sie träumt so|wun- der- bar. Da|
 [CA]2 ([B,G][A,F]) [DB]2 [Ec]2 | [CA]2 ([B,G][A,F]) [DB]2 z [Dd] | [Ec]2 [Ec][Ec] [FB]2 z [FB] | %30
w: wirft ihr, _ mit- leids-|voll al- * lein, der|Wind ei- ne Blüth' ins|
 [=EA]3 [^FA] G2 !fermata!z x |] %31
w: Käm- mer- lein.|
V:2
!p! [G,D] | [G,D]3 [G,C] [G,B,]2 [C,C]2 | [D,B,]2 [D,A,]2 !>![D,A,]2 [D,B,][D,C] | %3
 [E,B,][C,C] [D,A,]6 | z!<(! [D,A,][D,A,][D,A,] B,3!<)! B, | %5
!f! [F,B,]2 [F,A,]!p![E,A,] [D,B,]2 [E,E]2 | [F,C]>[B,,B,] [B,,B,]4!pp! [B,,F,]2 | %7
 [B,,F,]3 [B,,F,] [B,,F,]2 [B,,F,][B,,F,] | [B,,F,]3 [B,,F,] [B,,F,]2 z [B,,F,] | %9
 [C,A,]2 z [C,A,] [D,B,]2 z [D,B,] | [C,C]3 [D,C] [G,B,]2 z!p! [G,D] | %11
 [G,D]3 [G,C] [G,B,]2 [C,C]2 | [D,B,]2 [D,A,]2 !>![D,A,]2 [D,B,][D,C] | [E,B,][C,C] [D,A,]6 | %14
 z!<(! [D,A,][D,A,][D,A,] B,3!<)! B, | [F,B,]2 [F,A,]!p![E,A,] [D,B,]2 [E,E]2 | %16
 [F,C]>[B,,B,] [B,,B,]4!pp! [B,,F,]2 | [B,,F,]3 [B,,F,] [B,,F,]2 [B,,F,][B,,F,] | %18
 [B,,F,]3 [B,,F,] [B,,F,]2 [B,,F,][B,,F,] | [C,A,]2 [C,A,][C,A,] [D,B,]2 [D,B,][D,B,] | %20
 [C,C]3 [D,C] [G,B,]2 z!p! [G,D] | [G,D]3 [G,C] [G,B,]2 [C,C]2 | %22
 [D,B,]2 [D,A,]2 !>![D,A,]2 [D,B,][D,C] | [E,B,][C,C] [D,A,]6 | %24
 z!<(! [D,A,][D,A,][D,A,] B,3!<)! B, | [F,B,]2 [F,A,]!p![E,A,] [D,B,]2 [E,E]2 | %26
 [F,C]>[B,,B,] [B,,B,]4!pp! [B,,F,]2 | [B,,F,]3 [B,,F,] [B,,F,]2 [B,,F,]2 | %28
 [B,,F,]3 [B,,F,] [B,,F,]2 z [B,,F,] | [C,A,]2 [C,A,][C,A,] [D,B,]2 z [D,B,] | %30
 [C,C]3 [D,C] [G,B,]2 !fermata!z x |] %31
V:3
 x | x8 | x8 | x8 | x4 (D,2 C,)E, | x8 | x8 | x8 | x8 | x8 | x8 | x8 | x8 | x8 | x4 (D,2 C,)E, | %15
 x8 | x8 | x8 | x8 | x8 | x8 | x8 | x8 | x8 | x4 (D,2 C,)E, | x8 | x8 | x8 | x8 | x8 | x8 |] %31

